__todo__/opentelemetry.svg

<svg height="180" preserveAspectRatio="xMidYMid" viewBox="0 0 512 180" width="512" xmlns="http://www.w3.org/2000/svg"><path d="m94.9769908 98.1612359c-7.6526715 7.6526711-7.6526715 20.0751591 0 27.7278301 7.6526712 7.652671 20.0751582 7.652671 27.7278302 0 7.652671-7.652671 7.652671-20.075159 0-27.7278301-7.652672-7.6526714-20.075159-7.6526714-27.7278302 0zm20.7565612 20.7565611c-3.77392 3.77392-9.958956 3.77392-13.732876 0-3.7739206-3.77392-3.7739206-9.958956 0-13.732876 3.77392-3.77392 9.958956-3.77392 13.732876 0s3.77392 9.958956 0 13.732876zm18.555107-16.772979h8.229243v4.140829c1.991791-2.725609 4.769816-4.7174 9.015476-4.7174 6.761607 0 13.20872 5.293972 13.20872 14.99085v.104831c0 9.696878-6.342282 14.990849-13.20872 14.990849-4.402907 0-7.076101-1.991791-9.015476-4.350491v12.422487h-8.229243zm22.224197 14.571525v-.104831c0-4.822231-3.249765-8.01958-7.076101-8.01958-3.826335 0-7.023684 3.197349-7.023684 8.01958v.104831c0 4.822232 3.197349 8.019581 7.023684 8.019581 3.826336-.052416 7.076101-3.144934 7.076101-8.019581zm14.047369.052416v-.104831c0-8.229243 5.870543-15.043265 14.257032-15.043265 9.644463 0 14.047369 7.495425 14.047369 15.672252 0 .628986-.052415 1.41522-.104831 2.149037h-20.075158c.786233 3.721505 3.407011 5.660881 7.0761 5.660881 2.725609 0 4.7174-.838649 7.023685-2.935272l4.664984 4.140829c-2.673193 3.354596-6.551944 5.398803-11.7935 5.398803-8.700983-.052416-15.095681-6.13262-15.095681-14.938434zm20.337237-2.463531c-.47174-3.669089-2.620778-6.132621-6.080205-6.132621-3.407011 0-5.608465 2.411116-6.237451 6.132621zm13.837707-12.16041h8.386489v4.193245c1.939376-2.463531 4.402907-4.7174 8.648567-4.7174 6.342283 0 10.011372 4.193244 10.011372 10.954851v19.079263h-8.38649v-16.458485c0-3.983582-1.88696-5.975373-5.084309-5.975373s-5.241555 2.044206-5.241555 5.975373v16.458485h-8.38649v-29.509959zm-82.344841-100.37579292-12.003163 12.00316272c-2.3587 2.3587001-2.3587 6.1850358 0 8.5437359l46.911924 46.9119243c2.3587 2.3587001 6.185036 2.3587001 8.543736 0l12.003163-12.0031627c2.3587-2.3587001 2.3587-6.1850359 0-8.543736l-46.911925-46.91192422c-2.3587-2.35870011-6.185035-2.35870011-8.543735 0zm-84.1269708 153.42033792c2.1490379-2.149038 2.1490379-5.608465 0-7.757503l-6.1326203-6.13262c-2.1490378-2.149038-5.6084646-2.149038-7.7575025 0l-12.5797339 12.579734-3.45942681-3.459427c-1.88696008-1.88696-5.03189355-1.88696-6.91885363 0s-1.88696008 5.031894 0 6.918854l20.80897644 20.808976c1.8869601 1.88696 5.0318936 1.88696 6.9188537 0 1.88696-1.88696 1.88696-5.031893 0-6.918853l-3.4594269-3.459427z" fill="#f5a800"/><path d="m101.791013 36.2060466-26.6795186 26.6795189c-2.3587001 2.3587001-2.3587001 6.2898669 0 8.648567l16.4584851 16.4584852c11.6362535-8.3864892 27.9899075-7.3381781 38.4730195 3.1449335l13.313552-13.3135517c2.3587-2.3587001 2.3587-6.289867 0-8.6485671l-32.916971-32.9169703c-2.411115-2.4111156-6.289867-2.4111156-8.648567-.0524155zm-17.1398871 58.7578403-9.7492938-9.7492938c-2.2538689-2.2538689-6.0277891-2.2538689-8.2816581 0l-34.3321904 34.3321909c-2.253869 2.253869-2.253869 6.027789 0 8.281658l19.446172 19.446172c2.253869 2.253869 6.0277891 2.253869 8.2816581 0l22.0669499-22.06695c-4.6125691-9.696878-3.7739202-21.333132 2.5683623-30.2437771zm162.6454761 5.3988021h-11.950747v-7.9671644h32.550061v7.9671644h-11.950747v31.292088h-8.648567zm20.65173 16.353654v-.104831c0-8.229242 5.870542-15.043265 14.257031-15.043265 9.644463 0 14.04737 7.495425 14.04737 15.672252 0 .628987-.052416 1.41522-.104831 2.149038h-20.075159c.786233 3.721504 3.407011 5.66088 7.0761 5.66088 2.725609 0 4.717401-.838649 7.023685-2.935271l4.664985 4.140829c-2.673194 3.354596-6.551945 5.398802-11.793501 5.398802-8.700982 0-15.09568-6.080204-15.09568-14.938434zm20.337236-2.411115c-.47174-3.669089-2.620778-6.132621-6.080205-6.132621-3.407011 0-5.608464 2.411116-6.237451 6.132621zm13.785292-21.9097034h8.176827v39.2592524h-8.176827zm13.994954 24.3732344v-.104831c0-8.229243 5.870542-15.043265 14.257031-15.043265 9.644463 0 14.04737 7.495425 14.04737 15.672252 0 .628986-.052416 1.41522-.104831 2.149037h-20.075159c.786234 3.721505 3.407011 5.660881 7.0761 5.660881 2.725609 0 4.717401-.838649 7.023685-2.935272l4.664985 4.140829c-2.673194 3.354596-6.551945 5.398803-11.793501 5.398803-8.648567-.052416-15.09568-6.13262-15.09568-14.938434zm20.389652-2.411116c-.47174-3.669089-2.620778-6.13262-6.080205-6.13262-3.407011 0-5.608465 2.411116-6.237451 6.13262zm13.785291-12.212825h8.38649v4.193245c1.939375-2.463531 4.455322-4.7174 8.700982-4.7174 3.826336 0 6.761607 1.729713 8.281658 4.664984 2.568363-3.040102 5.660881-4.664984 9.696879-4.664984 6.237451 0 9.958956 3.721504 9.958956 10.85002v19.184094h-8.38649v-16.458485c0-3.983582-1.782129-5.975373-4.874647-5.975373-3.144933 0-5.084309 2.044206-5.084309 5.975373v16.458485h-8.386489v-16.458485c0-3.983582-1.782129-5.975373-4.874647-5.975373-3.144933 0-5.084309 2.044206-5.084309 5.975373v16.458485h-8.386489v-29.509959zm50.843092 14.571525v-.104831c0-8.229242 5.870542-15.043265 14.257031-15.043265 9.644463 0 14.04737 7.495425 14.04737 15.672252 0 .628987-.052416 1.41522-.104831 2.149038h-20.075159c.786233 3.721504 3.407011 5.66088 7.0761 5.66088 2.725609 0 4.7174-.838649 7.023685-2.935271l4.664985 4.140829c-2.673194 3.354596-6.551945 5.398802-11.793501 5.398802-8.700982 0-15.09568-6.080204-15.09568-14.938434zm20.337236-2.411115c-.47174-3.669089-2.620778-6.132621-6.080205-6.132621-3.407011 0-5.608464 2.411116-6.237451 6.132621zm14.728772 8.438905v-14.099786h-3.564258v-7.233346h3.564258v-7.6002564h8.438905v7.6002564h7.023684v7.233346h-6.971269v12.684565c0 1.939376.838649 2.882856 2.725609 2.882856 1.572467 0 2.935271-.366909 4.140829-1.048311v6.761607c-1.782129 1.048311-3.826336 1.729713-6.656776 1.729713-5.18914 0-8.700982-2.044206-8.700982-8.910644zm21.804872-20.808977h8.49132v6.027789c1.729714-4.140829 4.507738-6.814022 9.539632-6.60436v8.910645h-.47174c-5.660881 0-9.120307 3.407011-9.120307 10.587942v11.059683h-8.491321v-29.981699zm45.024964-.314493h9.015476l-11.741085 31.344503c-2.3587 6.237452-4.874647 8.543736-10.063787 8.543736-3.144934 0-5.451218-.786233-7.705087-2.096622l2.882856-6.289867c1.153142.681402 2.568362 1.205558 3.721504 1.205558 1.467636 0 2.306285-.47174 3.040102-1.991791l-12.003162-30.715517h9.172722l6.97127 20.808976z" fill="#425cc7"/></svg>

<?xml version="1.0" encoding="UTF-8"?>
<svg width="512px" height="180px" viewBox="0 0 512 180" version="1.1" xmlns="http://www.w3.org/2000/svg" xmlns:xlink="http://www.w3.org/1999/xlink" preserveAspectRatio="xMidYMid">
    <title>OpenTelemetry</title>
    <g>
				<path d="M94.9769908,98.1612359 C87.3243193,105.813907 87.3243193,118.236395 94.9769908,125.889066 C102.629662,133.541737 115.052149,133.541737 122.704821,125.889066 C130.357492,118.236395 130.357492,105.813907 122.704821,98.1612359 C115.052149,90.5085645 102.629662,90.5085645 94.9769908,98.1612359 Z M115.733552,118.917797 C111.959632,122.691717 105.774596,122.691717 102.000676,118.917797 C98.2267554,115.143877 98.2267554,108.958841 102.000676,105.184921 C105.774596,101.411001 111.959632,101.411001 115.733552,105.184921 C119.507472,108.958841 119.507472,115.143877 115.733552,118.917797 Z M134.288659,102.144818 L142.517902,102.144818 L142.517902,106.285647 C144.509693,103.560038 147.287718,101.568247 151.533378,101.568247 C158.294985,101.568247 164.742098,106.862219 164.742098,116.559097 L164.742098,116.663928 C164.742098,126.360806 158.399816,131.654777 151.533378,131.654777 C147.130471,131.654777 144.457277,129.662986 142.517902,127.304286 L142.517902,139.726773 L134.288659,139.726773 L134.288659,102.144818 L134.288659,102.144818 Z M156.512856,116.716343 L156.512856,116.611512 C156.512856,111.789281 153.263091,108.591932 149.436755,108.591932 C145.61042,108.591932 142.413071,111.789281 142.413071,116.611512 L142.413071,116.716343 C142.413071,121.538575 145.61042,124.735924 149.436755,124.735924 C153.263091,124.683508 156.512856,121.59099 156.512856,116.716343 Z M170.560225,116.768759 L170.560225,116.663928 C170.560225,108.434685 176.430768,101.620663 184.817257,101.620663 C194.46172,101.620663 198.864626,109.116088 198.864626,117.292915 C198.864626,117.921901 198.812211,118.708135 198.759795,119.441952 L178.684637,119.441952 C179.47087,123.163457 182.091648,125.102833 185.760737,125.102833 C188.486346,125.102833 190.478137,124.264184 192.784422,122.167561 L197.449406,126.30839 C194.776213,129.662986 190.897462,131.707193 185.655906,131.707193 C176.954923,131.654777 170.560225,125.574573 170.560225,116.768759 L170.560225,116.768759 Z M190.897462,114.305228 C190.425722,110.636139 188.276684,108.172607 184.817257,108.172607 C181.410246,108.172607 179.208792,110.583723 178.579806,114.305228 L190.897462,114.305228 Z M204.735169,102.144818 L213.121658,102.144818 L213.121658,106.338063 C215.061034,103.874532 217.524565,101.620663 221.770225,101.620663 C228.112508,101.620663 231.781597,105.813907 231.781597,112.575514 L231.781597,131.654777 L223.395107,131.654777 L223.395107,115.196292 C223.395107,111.21271 221.508147,109.220919 218.310798,109.220919 C215.113449,109.220919 213.069243,111.265125 213.069243,115.196292 L213.069243,131.654777 L204.682753,131.654777 L204.682753,102.144818 L204.735169,102.144818 Z M122.390328,1.76902508 L110.387165,13.7721878 C108.028465,16.1308879 108.028465,19.9572236 110.387165,22.3159237 L157.299089,69.227848 C159.657789,71.5865481 163.484125,71.5865481 165.842825,69.227848 L177.845988,57.2246853 C180.204688,54.8659852 180.204688,51.0396494 177.845988,48.6809493 L130.934063,1.76902508 C128.575363,-0.589675026 124.749028,-0.589675026 122.390328,1.76902508 L122.390328,1.76902508 Z M38.2633572,155.189363 C40.4123951,153.040325 40.4123951,149.580898 38.2633572,147.43186 L32.1307369,141.29924 C29.9816991,139.150202 26.5222723,139.150202 24.3732344,141.29924 L11.7935005,153.878974 L8.33407369,150.419547 C6.44711361,148.532587 3.30218014,148.532587 1.41522006,150.419547 C-0.47174002,152.306507 -0.47174002,155.451441 1.41522006,157.338401 L22.2241965,178.147377 C24.1111566,180.034337 27.2560901,180.034337 29.1430502,178.147377 C31.0300102,176.260417 31.0300102,173.115484 29.1430502,171.228524 L25.6836233,167.769097 L38.2633572,155.189363 L38.2633572,155.189363 Z" fill="#F5A800"></path>
				<path d="M101.791013,36.2060466 L75.1114944,62.8855655 C72.7527943,65.2442656 72.7527943,69.1754324 75.1114944,71.5341325 L91.5699795,87.9926177 C103.206233,79.6061285 119.559887,80.6544396 130.042999,91.1375512 L143.356551,77.8239995 C145.715251,75.4652994 145.715251,71.5341325 143.356551,69.1754324 L110.43958,36.2584621 C108.028465,33.8473465 104.149713,33.8473465 101.791013,36.2060466 L101.791013,36.2060466 Z M84.6511259,94.9638869 L74.9018321,85.2145931 C72.6479632,82.9607242 68.874043,82.9607242 66.620174,85.2145931 L32.2879836,119.546784 C30.0341146,121.800653 30.0341146,125.574573 32.2879836,127.828442 L51.7341556,147.274614 C53.9880246,149.528483 57.7619447,149.528483 60.0158137,147.274614 L82.0827636,125.207664 C77.4701945,115.510786 78.3088434,103.874532 84.6511259,94.9638869 L84.6511259,94.9638869 Z M247.296602,100.362689 L235.345855,100.362689 L235.345855,92.3955246 L267.895916,92.3955246 L267.895916,100.362689 L255.945169,100.362689 L255.945169,131.654777 L247.296602,131.654777 L247.296602,100.362689 Z M267.948332,116.716343 L267.948332,116.611512 C267.948332,108.38227 273.818874,101.568247 282.205363,101.568247 C291.849826,101.568247 296.252733,109.063672 296.252733,117.240499 C296.252733,117.869486 296.200317,118.655719 296.147902,119.389537 L276.072743,119.389537 C276.858976,123.111041 279.479754,125.050417 283.148843,125.050417 C285.874452,125.050417 287.866244,124.211768 290.172528,122.115146 L294.837513,126.255975 C292.164319,129.610571 288.285568,131.654777 283.044012,131.654777 C274.34303,131.654777 267.948332,125.574573 267.948332,116.716343 L267.948332,116.716343 Z M288.285568,114.305228 C287.813828,110.636139 285.66479,108.172607 282.205363,108.172607 C278.798352,108.172607 276.596899,110.583723 275.967912,114.305228 L288.285568,114.305228 Z M302.07086,92.3955246 L310.247687,92.3955246 L310.247687,131.654777 L302.07086,131.654777 L302.07086,92.3955246 Z M316.065814,116.768759 L316.065814,116.663928 C316.065814,108.434685 321.936356,101.620663 330.322845,101.620663 C339.967308,101.620663 344.370215,109.116088 344.370215,117.292915 C344.370215,117.921901 344.317799,118.708135 344.265384,119.441952 L324.190225,119.441952 C324.976459,123.163457 327.597236,125.102833 331.266325,125.102833 C333.991934,125.102833 335.983726,124.264184 338.29001,122.167561 L342.954995,126.30839 C340.281801,129.662986 336.40305,131.707193 331.161494,131.707193 C322.512927,131.654777 316.065814,125.574573 316.065814,116.768759 L316.065814,116.768759 Z M336.455466,114.357643 C335.983726,110.688554 333.834688,108.225023 330.375261,108.225023 C326.96825,108.225023 324.766796,110.636139 324.13781,114.357643 L336.455466,114.357643 Z M350.240757,102.144818 L358.627247,102.144818 L358.627247,106.338063 C360.566622,103.874532 363.082569,101.620663 367.328229,101.620663 C371.154565,101.620663 374.089836,103.350376 375.609887,106.285647 C378.17825,103.245545 381.270768,101.620663 385.306766,101.620663 C391.544217,101.620663 395.265722,105.342167 395.265722,112.470683 L395.265722,131.654777 L386.879232,131.654777 L386.879232,115.196292 C386.879232,111.21271 385.097103,109.220919 382.004585,109.220919 C378.859652,109.220919 376.920276,111.265125 376.920276,115.196292 L376.920276,131.654777 L368.533787,131.654777 L368.533787,115.196292 C368.533787,111.21271 366.751658,109.220919 363.65914,109.220919 C360.514207,109.220919 358.574831,111.265125 358.574831,115.196292 L358.574831,131.654777 L350.188342,131.654777 L350.188342,102.144818 L350.240757,102.144818 Z M401.083849,116.716343 L401.083849,116.611512 C401.083849,108.38227 406.954391,101.568247 415.34088,101.568247 C424.985343,101.568247 429.38825,109.063672 429.38825,117.240499 C429.38825,117.869486 429.335834,118.655719 429.283419,119.389537 L409.20826,119.389537 C409.994493,123.111041 412.615271,125.050417 416.28436,125.050417 C419.009969,125.050417 421.00176,124.211768 423.308045,122.115146 L427.97303,126.255975 C425.299836,129.610571 421.421085,131.654777 416.179529,131.654777 C407.478547,131.654777 401.083849,125.574573 401.083849,116.716343 L401.083849,116.716343 Z M421.421085,114.305228 C420.949345,110.636139 418.800307,108.172607 415.34088,108.172607 C411.933869,108.172607 409.732416,110.583723 409.103429,114.305228 L421.421085,114.305228 Z M436.149857,122.744133 L436.149857,108.644347 L432.585599,108.644347 L432.585599,101.411001 L436.149857,101.411001 L436.149857,93.8107446 L444.588762,93.8107446 L444.588762,101.411001 L451.612446,101.411001 L451.612446,108.644347 L444.641177,108.644347 L444.641177,121.328912 C444.641177,123.268288 445.479826,124.211768 447.366786,124.211768 C448.939253,124.211768 450.302057,123.844859 451.507615,123.163457 L451.507615,129.925064 C449.725486,130.973375 447.681279,131.654777 444.850839,131.654777 C439.661699,131.654777 436.149857,129.610571 436.149857,122.744133 L436.149857,122.744133 Z M457.954729,101.935156 L466.446049,101.935156 L466.446049,107.962945 C468.175763,103.822116 470.953787,101.148923 475.985681,101.358585 L475.985681,110.26923 L475.513941,110.26923 C469.85306,110.26923 466.393634,113.676241 466.393634,120.857172 L466.393634,131.916855 L457.902313,131.916855 L457.902313,101.935156 L457.954729,101.935156 Z M502.979693,101.620663 L511.995169,101.620663 L500.254084,132.965166 C497.895384,139.202618 495.379437,141.508902 490.190297,141.508902 C487.045363,141.508902 484.739079,140.722669 482.48521,139.41228 L485.368066,133.122413 C486.521208,133.803815 487.936428,134.327971 489.08957,134.327971 C490.557206,134.327971 491.395855,133.856231 492.129672,132.33618 L480.12651,101.620663 L489.299232,101.620663 L496.270502,122.429639 L502.979693,101.620663 L502.979693,101.620663 Z" fill="#425CC7"></path>
    </g>
</svg>
